X:532201 F:http://www.vwml.org/record/HAM/5/32/21%%VWML:HAM-5-32-21-0 T:Shannon Side, The
S:Mrs Marina Russell, Upwey coll. HED Hammond
O:England
A:Dorset
N:Transcribed from HAM-05-054.gif
F:HAM-05-32-20.abc
Z:EFDSS;PJHeadford
%%stretchlast 0
M:C
L:1/4
Q:2/4=60
K:Db
G/A/|BB AG|F>E DE|F>G EE&xxxD|E3 B,|E>F GA|
(B>A) BB|dB AA|B3 B/ B/|E>F GA|(B>A) BB|dd AA|
d3 e|B>A GE|F>E DE|A>F EE&x>GxD|E3||
yyyy"<or ends:-"y|F>_G EE&xxxD|E3||
W:Transcribed from HAM-05-054.gif - Purslow's transcription. W:Beneath Purslow's transcription of the words are the notes:
W:If, as Hammond surmises, this is indeed "The Shannon Side" then
W:the third verse does not belong. It is part of a version of "Down W:by the Riverside" called "captain Thunderbolt". It is strange that W:in a version of "The Shannon Side" collected earlier (8.55) the W:singer interpolated a verse from "The Jovial Tinker" at this point. W:. F.E.P.
W:[in hand:]
W:Since writing the above I have actually come across a W:broadside in the British Museum which includes the W:"Capt. Thunderbolt" verses in "The Shannon Side" W:[initialled:] FEP
